X:1
T:Title
%%score { 1 | 2 }
L:1/8
Q:1/4=212
M:3/2
K:Eb
V:1 treble nm="Grand Piano"
V:2 bass 
V:1
 G4 _G4 =G4 | B6 A2 G4 | [EG]4 [G,E]4 [CEA]4 | [B,DF]8 z4 | [B,EG]4 [GB]4 [FB]4 | %5
w: A.~J.~Foxwell * *|||||
 [Ee]6 [Fd]2 [Ec]4 | [FB]4 [EG]4 [E=A]4 | [DB]12 | [Dc]4 [Ec]4 [Fc]4 | B6 A2 G4 | e4 [Ge]4 [Ge]4 | %11
w: ||||||
 [_Gd]6 [Gc]2 B4 | B4 c4 d4 | e6 B2 B4 | [CEB]4 [CEA]4 [A,DF]4 | [G,E]12 |] %16
w: |||||
V:2
 [E,B,E]4 [E,=A,E]4 [E,B,E]4 | [D,F,B,]6 [D,F,B,]2 [E,G,B,]4 | [C,E,]4 C,4 A,,4 | B,,8 z4 | %4
 E,4 E,4 [D,F,]4 | [C,G,]6 [=B,,G,]2 [C,G,]4 | [D,B,]4 [E,B,]4 [C,C]4 | [B,,F,]12 | %8
 [B,,A,]4 [C,A,]4 [D,A,]4 | [E,G,B,]6 [D,F,B,]2 [E,G,B,]4 | [E,G,E]4 [C,C]4 [C,B,]4 | %11
 [D,=A,]6 [D,A,]2[K:treble] [G,B,G]4 | [A,DF]4 [A,CF]4 [A,B,F]4 | %13
 [G,B,E]6[K:bass] [F,A,D]2 [E,G,E]4 | A,,4 A,,4 B,,4 | E,12 |] %16

